dist/svg/static/erase-small.svg

<svg xmlns="http://www.w3.org/2000/svg" width="24" height="24" viewBox="0 0 24 24"><g fill="none" stroke="currentColor"><path d="M5.5 9v10.5a.998.998 0 0 0 .991 1h10.018a.998.998 0 0 0 .991-1V9m-14-1.5h16l-1.434-2H4.934L3.5 7.5z" stroke-miterlimit="10"/><path stroke-linejoin="round" d="M11.5 5.5v-2m-1.5 0h3"/></g></svg>

<?xml version="1.0" encoding="UTF-8" standalone="no"?>
<svg width="24px" height="24px" viewBox="0 0 24 24" version="1.1" xmlns="http://www.w3.org/2000/svg" xmlns:xlink="http://www.w3.org/1999/xlink">
    <!-- Generator: sketchtool 46.2 (44496) - http://www.bohemiancoding.com/sketch -->
    <title>erase-small</title>
    <desc>Created with sketchtool.</desc>
    <defs></defs>
    <g id="icons-published" stroke="none" stroke-width="1" fill="none" fill-rule="evenodd">
        <g id="briefing" transform="translate(-2372.000000, -538.000000)"></g>
        <g id="erase-small" stroke="#000000">
            <path d="M3.5,7.5 L19.5,7.5 L18.1,5.5 L4.9,5.5 C4.9,5.5 3.5,7.5 3.5,7.5 Z" id="Shape"></path>
            <path d="M5.5,9 L5.5,19.5 C5.5,20 5.9,20.5 6.5,20.5 L16.5,20.5 C17,20.5 17.5,20 17.5,19.5 L17.5,9" id="Path"></path>
            <path d="M11.5,5.5 L11.5,3.5 M10,3.5 L13,3.5" id="Shape" stroke-linejoin="round"></path>
        </g>
    </g>
</svg>
